X: 55
M: 6/8
L: 1/8
K: G
|: g |\
ece dBd | ece dBd | c2A A2g |\
ece dBd | gfe dAc |TB2G G2 :|


